!!!!SEGMENT: pl-sa--285-a-vii-45--002_brentner-johann-joseph-ignaz--mariae-dum-spiro-favorem.krn
!!!cenid: 17xx:551
!!!COM: Brentner, Johann Joseph Ignaz
!!!COM-rismid: pe30000477
!!!CDT: 1689/11/03-1742/06/28
!!!CNT: Czech
!!!OTL: Mariae dum spiro favorem
!!!PDT:
!!!AGN: Sacred
!!!SMS-siglum: PL-SA
!!!SMS-shelfmark: 285/A VII 45
!!!SMS-shelfwork: 002 W
!!!SMS-variant:
!!!SMS-altvar:
!!!NIFC-rismid: 1001041293
!!!URL-scan: http://bc.bdsandomierz.pl/dlibra/publication/1781/edition/1749/content
!!!ONB-nifc:
!!!AIN: 1 empty 1 organ 2 violn 1 vox
!!!key:
**kern	**fba	**kern	**kern	**kern	**kern	**text
*part5	*part5	*part4	*part3	*part2	*part1	*part1
*staff5	*staff5	*staff4	*staff3	*staff1	*staff1	*staff1
*Iorgan	*	*Ivioln	*Ivioln	*Iempty	*Ivox	*
*I"Organo	*	*I"Violino Secundo	*I"Violino Primo	*I"Baſso Pro...	*I"Canto Solo	*
*I'org	*	*I'vl II	*I'vl I	*I'B	*I'C	*
*clefF4	*	*clefG2	*clefG2	*	*clefC1	*
*k[b-]	*	*k[b-]	*k[b-]	*	*k[b-]	*
*d:	*	*d:	*d:	*	*d:	*
*M6/4	*	*M6/4	*M6/4	*	*M6/4	*
=1	=1	=1	=1	=1	=1	=1
!LO:SIC:o=:v:brak oznaczenia tempa	!	!LO:SIC:o=:v:brak oznaczenia tempa	!LO:SIC:o=:v:brak oznaczenia tempa	!	!LO:SIC:o=:v:brak oznaczenia tempa	!
4D\	.	4ff\	8r	1.ryy	00.r	.
.	.	.	8aa\L	.	.	.
8r	.	8r	8aa\	.	.	.
8D\L	.	8a/L	8dd\	.	.	.
8D\	.	8a/	8dd\	.	.	.
8D\J	.	8a/J	8ff\J	.	.	.
!LO:SIC:s=:v:4C#	!	!	!	!	!	!
4C/	.	4a/	8ee\L	.	.	.
.	.	.	8aa\	.	.	.
8r	.	8r	8aa\	.	.	.
!LO:SIC:s=:v:8C#	!	!	!	!	!	!
8C/L	.	8a/L	8ee\	.	.	.
!LO:SIC:s=:v:8C#	!	!	!	!	!	!
8C/	.	8a/	8ee\	.	.	.
!LO:SIC:s=:v:8C#	!	!	!	!	!	!
8C/J	.	8a/J	8gg\J	.	.	.
=2	=2	=2	=2	=2	=2	=2
4D\	.	4a/	8ff\L	1.ryy	.	.
.	.	.	8aa\	.	.	.
4BB-/	.	4dd\	8gg\	.	.	.
.	.	.	8ff\	.	.	.
4GG/	.	4b-/	8ee\	.	.	.
.	.	.	8dd\J	.	.	.
!LO:TX:a:t=P:problem=mixed beam	!	!	!	!	!	!
8AA/L	.	8a/L	4cc#X\	.	.	.
8A\	.	8cc#X/	.	.	.	.
8A\	.	8cc#/	4r	.	.	.
8A\	.	8cc#/	.	.	.	.
8G\	6 4	8cc#/	4r	.	.	.
8G\J	#	8cc#/J	.	.	.	.
=3	=3	=3	=3	=3	=3	=3
4F#X\	6	4dd\	8r	1.ryy	.	.
.	.	.	8aa\L	.	.	.
4F#\	6 5	4d/	8aa\	.	.	.
.	.	.	8cc\	.	.	.
4F#\	6 5	4d/	8cc\	.	.	.
.	.	.	8a\J	.	.	.
4r	.	4r	8d/L	.	.	.
.	.	.	8cc/	.	.	.
4F#\	6 5	4d/	8aa/	.	.	.
.	.	.	8cc/	.	.	.
4F#\	.	4a/	8b-/	.	.	.
.	.	.	8a/J	.	.	.
!	!	!	!LO:LB:g=original	!	!	!
=4	=4	=4	=4	=4	=4	=4
4G\	.	4g/	8b-\L	1.ryy	.	.
.	.	.	8gg\	.	.	.
4E\	6 5	4g/	8gg\	.	.	.
.	.	.	8b-\	.	.	.
4E\	.	4g/	8b-\	.	.	.
.	.	.	8g\J	.	.	.
4r	.	4r	8c/L	.	.	.
.	.	.	8b-/	.	.	.
4E\	.	4g/	8gg/	.	.	.
.	.	.	8b-/	.	.	.
4E\	.	4g/	8a/	.	.	.
.	.	.	8g/J	.	.	.
!LO:LB:g=original	!	!LO:LB:g=original	!	!	!	!
=5	=5	=5	=5	=5	=5	=5
!	!	!	!LO:TX:a:t=P:problem=mixed beam	!	!	!
4F\	.	4f/	8a/L	1.ryy	0.r	.
.	.	.	8ff\	.	.	.
8r	.	8r	8ff\	.	.	.
8G\L	6	8b-/L	8ee-X\	.	.	.
8G\	-6	8b-/	8ee-\	.	.	.
8F\J	6\	8a/J	8dd\J	.	.	.
4E\	.	8r	8gg\L	.	.	.
.	.	4cc\	8een\	.	.	.
8r	.	.	8ee\	.	.	.
8F\L	6	8a/L	8dd\	.	.	.
8F\	6	8a/	8dd\	.	.	.
8E\J	6\	8g/J	8cc#X\J	.	.	.
=6	=6	=6	=6	=6	=6	=6
!	!	!	!LO:TX:a:t=P:problem=mixed beam	!	!	!
4E\	.	4f/	8ff\L	1.ryy	.	.
.	.	.	8a/	.	.	.
4r	.	4r	8a/	.	.	.
.	.	.	8g/	.	.	.
4G\	.	4g/	8g/	.	.	.
.	.	.	8b-\J	.	.	.
!	!	!	!LO:SIC:s=:v:8c#	!	!	!
4A\	.	4e/	8c/L	.	.	.
.	.	.	8g/	.	.	.
4r	.	4r	8g/	.	.	.
.	.	.	8f/	.	.	.
4r	.	4d/	8f/	.	.	.
.	.	.	8a/J	.	.	.
!	!	!	!LO:LB:g=original	!	!	!
=7	=7	=7	=7	=7	=7	=7
4AA/	.	4e/	8c#X/	1.ryy	1.r	.
.	.	.	4a/	.	.	.
4r	.	8r	.	.	.	.
.	.	4e/	4g/	.	.	.
4r	.	.	.	.	.	.
.	.	8d/	8f/	.	.	.
8A\L	#	8e/L	8g/L	.	.	.
!	!	!LO:SIC:s=:v:8c#	!	!	!	!
8B-\	.	8c/	8e/	.	.	.
8A\	#	8d/	8f/J	.	.	.
8G\	.	8e/	8c#X/L	.	.	.
8F\	6	8f/	8d/	.	.	.
8E\J	6\	8g/J	8e/J	.	.	.
=8	=8	=8	=8	=8	=8	=8
!	!	!	!	!	!LO:N:vis=2	!
8D\L	.	8a/L	8f/L	1.ryy	2.r	.
8G\J	.	8b-/J	8g/J	.	.	.
!	!	!LO:SIC:o:s=:v:♯ pod nutą	!	!	!	!
4A\	#	2c#X/	2e/	.	.	.
4AA/	.	.	.	.	.	.
4D\	.	4d/	4d/	.	4r	.
4F\	.	4r	4r	.	4r	.
4D\	.	4r	4r	.	4dd\	Ma-
=9	=9	=9	=9	=9	=9	=9
*2\right	*	*	*	*	*	*
!	!	!LO:N:vis=2	!LO:N:vis=2	!	!	!
2A\	.	2.r	2.r	1.ryy	(8dd\L	-ri-
.	.	.	.	.	8cc#X\J)	.
.	.	.	.	.	(8cc#X\L	-ae
.	.	.	.	.	8dd\J)	.
!LO:SIC:o:s=:v:nieczytelne cyfrowanie	!	!	!	!	!	!
4AA/	.	.	.	.	(8ee\L	Dum
.	.	.	.	.	8cc#X\J)	.
4D\	.	4f/	8r	.	8dd\L	ſpi-
.	.	.	8a/L	.	8a\J	.
4r	.	4r	8a/	.	4a\	-ro
.	.	.	8g/	.	.	.
!	!	!LO:LB:g=original	!	!	!	!
4G\	.	4g/	8g/	.	4r	.
.	.	.	8b-/J	.	.	.
!LO:LB:g=original	!	!	!	!	!	!
=10	=10	=10	=10	=10	=10	=10
!	!	!	!LO:SIC:o:s=:v:niejednoznaczny zapis krzyżyka	!	!	!
4A\	.	4e/	8c#X/L	1.ryy	0.r	.
.	.	.	8g/	.	.	.
4r	.	4r	8g/	.	.	.
.	.	.	8f/	.	.	.
4r	.	4d/	8f/	.	.	.
.	.	.	8a/J	.	.	.
4AA/	.	4e/	8c#X/L	.	.	.
.	.	.	8a/	.	.	.
4r	.	8r	8a/	.	.	.
.	.	4e/	8g/	.	.	.
4r	.	.	8g/	.	.	.
.	.	8d/	8f/J	.	.	.
!	!	!	!LO:LB:g=original	!	!	!
=11	=11	=11	=11	=11	=11	=11
8r	.	8e/L	8g/L	1.ryy	.	.
!LO:N:vis=8	!	!LO:SIC:o:s=:v:♯ pod nutą	!	!	!	!
16A\LL	.	8c#X/	8e/	.	.	.
!LO:N:vis=8	!	!	!	!	!	!
16B-\J	.	.	.	.	.	.
8A\	.	8d/	8f/	.	.	.
8G\	.	8e/	8c#X/	.	.	.
8F\	6	8f/	8d/	.	.	.
8E\J	6	8g/	8e/	.	.	.
8D\L	.	8a/	8f/	.	.	.
8G\J	.	8b-/J	8g/J	.	.	.
4A\	#	2c#X/	2e/	.	.	.
4AA/	#	.	.	.	.	.
=12	=12	=12	=12	=12	=12	=12
2D\	.	4d/	4d/	1.ryy	4r	.
.	.	4r	4r	.	4r	.
4D\	.	4r	4r	.	4dd\	Ma-
!	!	!LO:N:vis=2	!LO:N:vis=2	!	!	!
2A\	6 4	2.r	2.r	.	(8dd\L	-ri-
.	.	.	.	.	8cc#X\J)	.
.	.	.	.	.	(8cc#X\L	-ae
.	.	.	.	.	8dd\J)	.
4AA/	#	.	.	.	(8ee\L	dum
.	.	.	.	.	8cc#X\J)	.
!	!	!	!	!	!LO:LB:g=original	!
=13	=13	=13	=13	=13	=13	=13
4D/	.	4r	4r	1.ryy	8dd\L	ſpi-
.	.	.	.	.	8a\J	.
4r	.	4r	4r	.	4a\	-ro
4r	.	4a/	4dd\	.	4ff\	fa-
!LO:N:vis=2	!	!	!	!	!	!
2.r	.	2g/	8dd\L	.	(8ff\L	-vo-
.	.	.	8cc#X\	.	8ee\J)	.
.	.	.	8cc#\	.	(8ee\L	-rem
.	.	.	8dd\	.	8ff\J)	.
.	.	4a/	8ee\	.	(8gg\L	re-
.	.	.	8cc#X\J	.	8ee\J)	.
=14	=14	=14	=14	=14	=14	=14
4r	.	2a/	4dd\	1.ryy	4ff\	-qui-
4r	.	.	4a/	.	4dd\	-ro'
4D\	.	4r	4r	.	4ff\	a-
!	!	!LO:N:vis=2	!LO:N:vis=2	!	!	!
4A\	6	2.r	2.r	.	(8ff\L	-mo-
.	.	.	.	.	8cc\J)	.
4F\	.	.	.	.	(8cc\L	-rem
.	.	.	.	.	8a\J)	.
4B-\	.	.	.	.	(8b-\L	ſus-
.	.	.	.	.	8dd\J)	.
=15	=15	=15	=15	=15	=15	=15
4F\	.	1.r	1.r	1.ryy	(8cc\L	-pi-
.	.	.	.	.	8f\J)	.
4A\	.	.	.	.	4f/	-ro
!	!	!	!	!	!LO:SIC:s=:v:ap-	!
4F\	.	.	.	.	4cc\	a-
4BB-/	.	.	.	.	(8dd\L	-pel-
.	.	.	.	.	8ee\J)	.
4C/	.	.	.	.	(8ee\L	-lo
.	.	.	.	.	8ff\J)	.
4D/	-	.	.	.	(8ff\L	ad
.	.	.	.	.	8gg\J)	.
!LO:LB:g=original	!	!LO:LB:g=original	!	!	!	!
=16	=16	=16	=16	=16	=16	=16
*	*	*	*	*	*2\right	*
4E\	6 5	4r	4r	1.ryy	2b-\	te
4r	.	4g/	8r	.	.	.
.	.	.	8b-\L	.	.	.
4r	.	4g/	8gg\	.	4b-\	a-
.	.	.	8b-\J	.	.	.
4E\	.	4r	4.b-\	.	(8gg\L	-mo-
.	.	.	.	.	8b-\J)	.
!	!	!	!	!	!LO:LB:g=original	!
4r	.	4g/	.	.	4b-\	-rem
.	.	.	8b-\L	.	.	.
4r	.	4g/	8gg\	.	4b-\	ſus-
.	.	.	8b-\J	.	.	.
!	!	!	!LO:LB:g=original	!	!	!
=17	=17	=17	=17	=17	=17	=17
4E\	6 5	4r	4.b-\	1.ryy	(8gg\L	-pi-
.	.	.	.	.	8b-\J)	.
4r	.	4g/	.	.	4b-\	-ro
.	.	.	8b-\L	.	.	.
4r	.	4g/	8gg\	.	4b-\	fa-
.	.	.	8b-\J	.	.	.
4E\	.	4r	4.b-\	.	(8gg\L	-vo-
.	.	.	.	.	8b-\J)	.
4r	.	4g/	.	.	4b-\	-rem
.	.	.	8b-\L	.	.	.
4r	.	4g/	8gg\	.	4b-\	re-
.	.	.	8b-\J	.	.	.
=18	=18	=18	=18	=18	=18	=18
4E\	.	4r	4b-\	1.ryy	(8gg\L	-qui-
.	.	.	.	.	8b-\J)	.
4r	.	4g/	4r	.	(8b-\L	-ro
.	.	.	.	.	8dd\J)	.
4E\	5	4g/	4r	.	(8cc\L	ma-
.	.	.	.	.	8b-\J)	.
!	!	!	!LO:N:vis=2	!	!	!
4F\	.	4f/	2.r	.	(8a\L	-ri-
.	.	.	.	.	8b-\J)	.
4G\	6	4r	.	.	(8b-\L	-ae
.	.	.	.	.	8cc\J)	.
4A\	6	4r	.	.	(8cc\L	dum
.	.	.	.	.	8dd\J)	.
=19	=19	=19	=19	=19	=19	=19
4BB-/	.	1.r	1.r	1.ryy	(8dd\L	ſpi-
.	.	.	.	.	8ee\J)	.
4C/	.	.	.	.	(8ee\L	-ro
.	.	.	.	.	8ff\J)	.
8D/L	.	.	.	.	(8ff\L	ap-
8E/J	.	.	.	.	8gg\J)	.
4F\	.	.	.	.	(8a\L	-pel-
.	.	.	.	.	8g\J)	.
4BB-/	.	.	.	.	(8b-\L	-lo
.	.	.	.	.	8a\J)	.
4C/	.	.	.	.	(8g/L	ad
.	.	.	.	.	8f/J)	.
!	!	!	!	!	!LO:LB:g=original	!
=20	=20	=20	=20	=20	=20	=20
4FF/	.	4a/	8r	1.ryy	2f/	te
.	.	.	8cc\L	.	.	.
8r	.	8r	8cc\	.	.	.
8F\L	.	8c/L	8f\	.	.	.
8F\	.	8c/	8f\	.	4r	.
8F\J	.	8c/J	8a\J	.	.	.
!	!	!	!	!	!LO:N:vis=2	!
4E\	6	4c/	8g\L	.	2.r	.
.	.	.	8cc\	.	.	.
8r	.	8r	8cc\	.	.	.
8E\L	.	8c/L	8g\	.	.	.
8E\	.	8c/	8g\	.	.	.
8E\J	.	8c/J	8b-\J	.	.	.
!LO:PB:g=original	!	!	!	!	!	!
=21	=21	=21	=21	=21	=21	=21
4F\	.	4c/	8a\L	1.ryy	0.r	.
.	.	.	8cc\	.	.	.
4D\	6	4f/	8cc\	.	.	.
.	.	.	8b-\	.	.	.
4BB-/	.	4d/	8a\	.	.	.
.	.	.	8g\J	.	.	.
!	!	!LO:PB:g=original	!	!	!	!
8r	.	4c/	4e/	.	.	.
8c\L	.	.	.	.	.	.
8c\	.	4r	4c/	.	.	.
!LO:SIC:o:s=:v:niejednoznaczny zapis łuku	!	!	!	!	!	!
(8G\	.	.	.	.	.	.
8G\	.	4r	4r	.	.	.
8E\J)	.	.	.	.	.	.
=22	=22	=22	=22	=22	=22	=22
4C/	.	4e/	8r	1.ryy	.	.
!	!	!	!LO:LB:g=original	!	!	!
.	.	.	8cc\L	.	.	.
8r	.	8r	8cc\	.	.	.
8C/L	.	8cc\L	8g\	.	.	.
8C/	.	8cc\	8g\	.	.	.
8C/J	.	8g\J	8e\J	.	.	.
!	!	!	!LO:TX:a:t=P:problem=mixed beam	!	!	!
4C/	.	4e/	8c/L	.	.	.
.	.	.	8b-\	.	.	.
8r	.	8r	8b-\	.	.	.
8C/L	.	8b-/L	8g\	.	.	.
8C/	.	8b-/	8g\	.	.	.
8C/J	.	8g/J	8e\J	.	.	.
=23	=23	=23	=23	=23	=23	=23
8C/	.	8e/	8c/	1.ryy	1.r	.
4F\	6	4f/	4a/	.	.	.
4E\	6	4c/	4g/	.	.	.
!	!	!LO:SIC:o:s=:v:chorągiewka 8 ozdobiona	!	!	!	!
8D/	.	8d/	8b-/	.	.	.
8C/L	.	4e/	8e\L	.	.	.
8BB-/	.	.	8dd\	.	.	.
8AA/J	.	4r	8cc\	.	.	.
8GG/L	.	.	8b-\	.	.	.
8FF/	.	4f/	8a\	.	.	.
8GG/J	.	.	8b-\J	.	.	.
=24	=24	=24	=24	=24	=24	=24
8AA/L	.	4f/	8cc\L	1.ryy	4r	.
8BB-/J	.	.	8dd\J	.	.	.
4C/	.	2c/	2e/	.	4r	.
4CC/	.	.	.	.	4ee\	Ma-
!LO:SIC:o:s=:v:niejednoznaczny zapis wysokości [4GG lub 4AA]	!	!	!	!	!	!
4AA/	6	4d/	4f/	.	(8ff\L	-ri-
.	.	.	.	.	8cc\J)	.
4AA/	.	4r	4r	.	4cc\	-ae
4BB-/	.	4r	4r	.	4dd\	dum
!LO:LB:g=original	!	!	!	!	!	!
=25	=25	=25	=25	=25	=25	=25
2FF/	.	1.r	1.r	1.ryy	(8cc\L	ſpi-
.	.	.	.	.	8f\J)	.
.	.	.	.	.	4f/	-ro
4D\	.	.	.	.	4ff\	fa-
!LO:SIC:o:s=:v:niejednoznaczny zapis nad nutą [łuk / ozdobnik]	!	!	!	!	!	!
2A\	.	.	.	.	(8ff\L	-vo-
.	.	.	.	.	8ee\J)	.
.	.	.	.	.	8gg\L	-rem
.	.	.	.	.	8ff\J	.
4G\	6	.	.	.	(8ee\L	re-
.	.	.	.	.	8dd\J)	.
=26	=26	=26	=26	=26	=26	=26
!	!	!LO:N:vis=2	!LO:N:vis=2	!	!	!
2A\	.	2.r	2.r	1.ryy	4cc#X\	-qui-
.	.	.	.	.	4a\	-ro
2F\	.	.	.	.	4a\	a-
.	.	4r	8r	.	(8ee\L	-mo-
.	.	.	8a\L	.	8a\J)	.
!	!	!LO:SIC:o:s=:v:błędnie ósemki połączone belką	!	!	!	!
!	!	!LO:N:vis=8	!	!	!	!
2r	.	4c/L	8ff\	.	4a\	-rem
.	.	.	8a\J	.	.	.
!	!	!LO:N:vis=8	!	!	!	!
.	.	4c/J	4a\	.	4a\	ſus-
!	!	!LO:LB:g=original	!	!	!	!
=27	=27	=27	=27	=27	=27	=27
0.r	.	4r	8r	1.ryy	8ff\L	-pi-
!	!	!	!LO:LB:g=original	!	!	!
.	.	.	8a\L	.	8a\J	.
.	.	4d/	8ff\	.	4a\	-ro
.	.	.	8a\	.	.	.
.	.	4d/	8a\	.	4a\	fa-
.	.	.	8ff\J	.	.	.
!	!	!	!	!	!LO:LB:g=original	!
.	.	4c#X/	8ee\L	.	(8gg\L	-vo-
.	.	.	8dd\	.	8ff\J)	.
.	.	4d/	8dd\	.	(8ff\L	-rem
.	.	.	8cc#X\	.	8ee\J)	.
.	.	4A/	8cc#\	.	(8ee\L	re-
.	.	.	8ee\J	.	8gg\J)	.
=28	=28	=28	=28	=28	=28	=28
.	.	4d/	4dd\	1.ryy	4ff\	-qui-
.	.	4e/	4g\	.	4ee\	-ro
!	!	!	!	!	!LO:SIC:s=:v:ap-	!
.	.	4f/	4a\	.	4dd\	a-
.	.	4g/	4b-\	.	4ee\	-pel-
.	.	4a/	4a\	.	4a\	-lo
.	.	4A/	4A/	.	4cc#X\	ad
=29	=29	=29	=29	=29	=29	=29
4r	.	2d/	2d/	1.ryy	2dd\	te
4d\	.	.	.	.	.	.
4D\	.	4r	4r	.	4ff\	ma-
4G\	.	4r	8r	.	4b-\	-ri-
.	.	.	8b-\L	.	.	.
4r	.	8r	8ee\	.	4b-\	-ae
!	!	!LO:TX:a:t=P:problem=mixed beam	!	!	!	!
.	.	8e/L	8g\J	.	.	.
4r	.	8ee\	4g/	.	4b-\	du(m)
.	.	8e/J	.	.	.	.
=30	=30	=30	=30	=30	=30	=30
0.r	.	4.e/	8g\L	1.ryy	4b-\	ſpi-
.	.	.	8g\	.	.	.
.	.	.	8ee\	.	4b-\	-ro
!	!	!LO:TX:a:t=P:problem=mixed beam	!	!	!	!
.	.	8e/L	8g\J	.	.	.
.	.	8ee\	4g\	.	4b-\	a-
.	.	8e/J	.	.	.	.
.	.	4.e/	8g\L	.	4b-\	-mo-
.	.	.	8g\	.	.	.
.	.	.	8ee\	.	4b-\	-re
!	!	!LO:TX:a:t=P:problem=mixed beam	!	!	!	!
.	.	8e/L	8g\J	.	.	.
.	.	8ee\	4g\	.	4b-\	re-
.	.	8e/J	.	.	.	.
!	!	!	!LO:LB:g=original	!	!	!
=31	=31	=31	=31	=31	=31	=31
.	.	8e/L	8g/L	1.ryy	4b-\	-qui-
.	.	8g/	8b-/	.	.	.
.	.	8f/J	8a/	.	(8a\L	-ro
!	!	!	!	!	!LO:SIC:o:s=:v:szlaczek	!
.	.	8e/L	8g/	.	8g\J)	.
!	!	!	!	!	!LO:LB:g=original	!
.	.	8d/	8f/	.	(8f/L	fa-
!	!	!LO:SIC:o:s=:v:♯ pod nutą	!	!	!	!
.	.	8c#X/J	8e/J	.	8e/J)	.
!	!	!LO:LB:g=original	!	!	!	!
.	.	8d/L	8f/L	.	(8f/L	-vo-
.	.	8e/	8g/	.	8g/J)	.
.	.	8f/	8a/	.	(8a\L	-rem
!	!	!	!LO:SIC:s=:v:8b-	!	!	!
.	.	8g/	8b-/	.	8bn\J)	.
!	!	!	!LO:SIC:s=:v:8cc#	!	!	!
.	.	8a/	8cc/	.	8cc#X\L	ſus-
.	.	8bn/J	8dd/J	.	8dd\J	.
=32	=32	=32	=32	=32	=32	=32
!	!	!LO:SIC:o:s=:v:♯ nad nutą	!	!	!	!
4r	.	4cc#X\	4ee\	1.ryy	4ee\	-pi-
4r	.	4dd\	4ff\	.	4ff\	-ro
!	!	!	!	!	!LO:SIC:s=:v:ap-	!
4F\	-	4r	4r	.	4dd\	a-
!	!	!LO:N:vis=2	!LO:N:vis=2	!	!	!
4G\	.	2.r	2.r	.	4ee\	-pel-
4A\	.	.	.	.	4a\	-lo
!LO:SIC:s=:v:4AA	!	!	!	!	!	!
4GG/	#	.	.	.	4cc#X\	ad
=33	=33	=33	=33	=33	=33	=33
4D/	.	4ff\	8r	1.ryy	2dd\	te
.	.	.	8aa\L	.	.	.
8r	.	8r	8aa\	.	.	.
8D/L	.	8a/L	8dd\	.	.	.
8D/	.	8a/	8dd\	.	4r	.
8D/J	.	8a/J	8gg\J	.	.	.
!	!	!	!	!	!LO:N:vis=2	!
4C#X/	5	4a/	8ee\L	.	2.r	.
.	.	.	8aa\	.	.	.
8r	.	8r	8aa\	.	.	.
8C#/L	.	8a/L	8ee\	.	.	.
8C#/	.	8a/	8ee\	.	.	.
8C#/J	.	8a/J	8gg\J	.	.	.
!LO:LB:g=original	!	!	!	!	!	!
=34	=34	=34	=34	=34	=34	=34
!	!	!	!	!	!LO:SIC:o:s=:v:fermata z góry i dołu oraz Finis na pauzach wielotaktowych [uwzględnione w t. 40]	!
4D/	.	4a/	8ff\L	1.ryy	00.r	.
.	.	.	8aa\	.	.	.
4BB-/	6	4b-/	8gg\	.	.	.
.	.	.	8ff\	.	.	.
4GG/	6	4b-/	8ee\	.	.	.
.	.	.	8dd\J	.	.	.
8AA/L	.	8a\L	4cc#X\	.	.	.
8A\	.	8cc#X\	.	.	.	.
8A\	.	8cc#\	4r	.	.	.
!LO:SIC:o:s=:v:niejednoznaczny zapis łuku	!	!	!	!	!	!
(8E\	.	8cc#\	.	.	.	.
8E\	.	8cc#\	4r	.	.	.
8C\J)	.	8cc#\J	.	.	.	.
!	!	!	!LO:TX:b:t=Verte Cito	!	!	!
!	!	!	!LO:PB:g=original	!	!	!
=35	=35	=35	=35	=35	=35	=35
4AA/	#	4cc#X\	8r	1.ryy	.	.
.	.	.	8aa\L	.	.	.
4r	.	8r	8aa\	.	.	.
.	.	8cc#X\L	8ee\	.	.	.
4r	.	8cc#\	8ee\	.	.	.
.	.	8cc#\J	8cc#X\J	.	.	.
4AA/	7 #	4cc#\	8a\L	.	.	.
.	.	.	8gg\	.	.	.
4r	.	8r	8gg\	.	.	.
.	.	8cc#\L	8ee\	.	.	.
4r	.	8cc#\	8ee\	.	.	.
.	.	8cc#\J	8cc#X\J	.	.	.
!	!	!LO:LB:g=original	!	!	!	!
=36	=36	=36	=36	=36	=36	=36
8r	.	8cc#X\L	8a\L	1.ryy	.	.
8d\L	.	8a\	8ff\	.	.	.
8d\	.	8a\	8ff\	.	.	.
8B-\	6	8g\	8dd\	.	.	.
8B-\	.	8g\	8dd\	.	.	.
8F#X\J	.	8a\J	8a\J	.	.	.
!LO:N:vis=4	!	!	!	!	!	!
8G\	6	4d/	8b-\L	.	.	.
8r	.	.	8g\	.	.	.
8r	.	8r	8gg\	.	.	.
8G\L	6 #	8gg\L	8ee\	.	.	.
8G\	.	8gg\	8ee\	.	.	.
8G\J	.	8ee\J	8bn\J	.	.	.
=37	=37	=37	=37	=37	=37	=37
4A\	.	4a/	8cc#X\L	1.ryy	.	.
.	.	.	8a\	.	.	.
8r	.	8r	8aa\	.	.	.
8d\L	.	8a/L	8ff\	.	.	.
8d\	.	8dd/	8ff\	.	.	.
8A\	.	8ee/J	8cc#X\J	.	.	.
8A\	.	8dd\L	8dd\L	.	.	.
8G\J	6	8b-\J	8ee\J	.	.	.
4A\	.	2e/	4a/	.	.	.
4AA/	#	.	4cc#X\	.	.	.
!	!	!	!LO:LB:g=original	!	!	!
=38	=38	=38	=38	=38	=38	=38
4D/	.	4f/	8dd\L	1.ryy	0.r	.
.	.	.	8ff\	.	.	.
!LO:LB:g=original	!	!	!	!	!	!
4r	.	4r	8ff\	.	.	.
.	.	.	8ff\	.	.	.
4r	.	4r	8dd\	.	.	.
.	.	.	8b-\J	.	.	.
*	*	*	*2\right	*	*	*
8r	.	8r	2.b-\	.	.	.
8G\L	.	8bb-\L	.	.	.	.
8G\	.	8bb-\	.	.	.	.
8E\	.	8gg\	.	.	.	.
8E\	.	8gg\	.	.	.	.
8C#X\J	.	8ee\J	.	.	.	.
=39	=39	=39	=39	=39	=39	=39
2.C#X/	.	4ee\	8a\L	1.ryy	.	.
.	.	.	8gg\	.	.	.
.	.	4r	8gg\	.	.	.
.	.	.	8ee\	.	.	.
.	.	4r	8ee\	.	.	.
.	.	.	8b-\J	.	.	.
2.C#/	7	8r	8b-\L	.	.	.
.	.	8gg\L	8ee\	.	.	.
.	.	8gg\	8ee\	.	.	.
.	6	8ee\	8b-\	.	.	.
.	.	8ee\	8b-\	.	.	.
.	.	8b-\J	8g\J	.	.	.
!	!	!LO:LB:g=original	!	!	!	!
=40	=40	=40	=40	=40	=40	=40
!	!	!	!	!	!LO:TX:b:B:t=Finis	!
2.C#X/	7	8b-\L	8g\L	1.ryy	1.r;;	.
.	.	8ee\J	8b-\	.	.	.
.	.	8ee\L	8b-\	.	.	.
.	.	8b-\	8g\	.	.	.
.	.	8b-\	8g\	.	.	.
.	.	8g\J	8e\J	.	.	.
2C#/	7	8g/L	8e/L	.	.	.
.	.	8g/	8b-/	.	.	.
.	6	8f/	8a/	.	.	.
.	.	8e/J	8g/	.	.	.
8D\L	.	4d/	8f/J	.	.	.
!	!	!	!LO:N:vis=4	!	!	!
8E\J	.	.	8g/	.	.	.
=41	=41	=41	=41	=41	=41	=41
!	!	!LO:TX:a:B:t=Finis	!	!	!	!
8F\L	.	4d/	8a\L	1.ryy	2.r	.
8G\J	.	.	8b-\J	.	.	.
!	!	!LO:SIC:o:s=:v:fermata pod nutą	!	!	!	!
4A\	#	2c#X;</	2e/	.	.	.
4AA/	.	.	.	.	.	.
!LO:TX:a:B:t=Finis	!	!	!LO:SIC:o:s=:v:łuk pod nutą [przyjęto fermatę]	!	!	!
!LO:SIC:o:s=:v:fermata pod nutą	!	!	!LO:TX:a:B:t=Finis	!	!	!
2D;;\	.	2d/	2d;</	.	4r	.
.	.	.	.	.	4r	.
4r	.	8f/L	8dd\L	.	(8dd\L	hanc
.	.	8g/J	8ee\J	.	8ee\J)	.
!	!	!	!LO:LB:g=original	!	!	!
=42	=42	=42	=42	=42	=42	=42
1.r	.	4a/	4ff\	1.ryy	4ff\	moe-
.	.	2g/	8ee\L	.	(8ee\L	-ſtus
.	.	.	8dd\	.	8dd\J)	.
.	.	.	8cc\	.	(8cc\L	im-
.	.	.	8b-\	.	8b-\J)	.
!	!	!	!	!	!LO:PB:g=original	!
.	.	8f/L	8a\	.	(8a\L	-plo-
.	.	8g/	8b-\J	.	8b-\J)	.
.	.	8a/	4cc\	.	4cc\	-ro
.	.	8b-/	.	.	.	.
.	.	8a/	8dd\L	.	(8dd\L	hanc
.	.	8g/J	8ee\J	.	8ee\J)	.
=43	=43	=43	=43	=43	=43	=43
!LO:N:vis=2	!	!	!	!	!	!
2.r	.	4f/	4ff\	1.ryy	4ff\	lae-
.	.	2g/	8ee\L	.	(8ee\L	-tus
.	.	.	8dd\	.	8dd\J)	.
.	.	.	8cc\	.	(8cc\L	ho-
.	.	.	8b-\	.	8b-\J)	.
4r	.	8f/L	8a\	.	(8a\L	-no-
.	.	8g/J	8b-\J	.	8b-\J)	.
4r	.	4a/	4cc\	.	4cc\	-ro
4F\	.	4r	4a\	.	4cc\	hanc
=44	=44	=44	=44	=44	=44	=44
4B-\	.	1.r	8b-\L	1.ryy	(8dd\L	ſem-
.	.	.	8a\J	.	8cc\J)	.
4A\	6	.	4a\	.	(8cc\L	-per
.	.	.	.	.	8ee-X\J)	.
!LO:LB:g=original	!	!	!	!	!	!
8B-\L	.	.	4r	.	8dd\L	a-
8A\J	.	.	.	.	8cc\J	.
!	!	!	!LO:N:vis=2	!	!	!
4G\	.	.	2.r	.	(8b-\L	-ma-
.	.	.	.	.	8a\J)	.
4r	.	.	.	.	(8b-\L	-bo
.	.	.	.	.	8dd\J)	.
4E\	6	.	.	.	(8cc\L	ah
.	.	.	.	.	8b-\J)	.
=45	=45	=45	=45	=45	=45	=45
!	!	!LO:N:vis=2	!LO:N:vis=2	!	!	!
4F\	.	2.r	2.r	1.ryy	4a\	o-
4r	.	.	.	.	8b-\L	-ra
.	.	.	.	.	8a\J	.
4D\	6	.	.	.	(8g/L	pro
.	.	.	.	.	8f/J)	.
!	!	!	!	!	!LO:LB:g=original	!
4C/	.	8r	8r	.	2.cc\	me
!	!	!LO:LB:g=original	!	!	!	!
.	.	8gg\L	8ccc\L	.	.	.
4r	.	8gg\	8ccc\	.	.	.
.	.	8ee\	8gg\	.	.	.
4r	.	8ee\	8gg\	.	.	.
.	.	8cc\J	8ee\J	.	.	.
=46	=46	=46	=46	=46	=46	=46
1.r	.	8cc\L	8cc\L	1.ryy	1.cc\;	.
.	.	8gg\	8bb-\	.	.	.
.	.	8gg\	8bb-\	.	.	.
.	.	8ee\	8gg\	.	.	.
.	.	8ee\	8gg\	.	.	.
.	.	8cc\J	8ee\J	.	.	.
!	!	!	!LO:LB:g=original	!	!	!
.	.	8a\L	8cc\L	.	.	.
.	.	8ff\	8aa\	.	.	.
.	.	8ff\	8aa\	.	.	.
.	.	8a\	8ff\	.	.	.
.	.	8a\	8ff\	.	.	.
.	.	8f\J	8cc\J	.	.	.
=47	=47	=47	=47	=47	=47	=47
4r	.	2e/	2g/	1.ryy	4r	.
4r	.	.	.	.	4r	.
4c\	.	4r	4r	.	4ee\	hanc
!	!	!LO:N:vis=2	!	!	!	!
4F\	.	2.r	4r	.	(8ff\L	moe-
.	.	.	.	.	8dd\J)	.
4G\	#	.	4dd\	.	(8bn\L	-ſtus
.	.	.	.	.	8cc\J)	.
4GG/	.	.	4bn\	.	(8dd\L	im-
.	.	.	.	.	8bn\J)	.
=48	=48	=48	=48	=48	=48	=48
4C/	.	1.r	4r	1.ryy	(8ee\L	-plo-
.	.	.	.	.	8cc\J)	.
4F\	.	.	4cc\	.	(8a\L	-ro
.	.	.	.	.	8bn\J)	.
4FF/	6	.	4a\	.	(8cc\L	hanc
.	.	.	.	.	8a\J)	.
4D\	.	.	4r	.	(8cc\L	lae-
!	!	!	!	!	!LO:SIC:o:s=:v:♯ nad nutą w funkcji kasownika	!
.	.	.	.	.	8bn\J)	.
4E\	.	.	4bn\	.	(8g#X\L	-tus
.	.	.	.	.	8a\J)	.
!	!	!	!LO:SIC:s=:v:4g#	!	!	!
4EE/	.	.	4g\	.	8bn\L	ho-
.	.	.	.	.	8g#X\J	.
=49	=49	=49	=49	=49	=49	=49
2AA/	.	4r	4r	1.ryy	(8a\L	-no-
.	.	.	.	.	8bn\J)	.
.	.	4r	8ee\L	.	(8cc#X\L	.
.	.	.	8ff\	.	8dd\J)	.
4r	.	4A/	8gg\	.	(8ee\L	.
.	.	.	8aa\	.	8ff\J)	.
!	!	!	!	!	!LO:LB:g=original	!
4r	.	4G/	8bb-\	.	(8gg\L	.
.	.	.	8gg\J	.	8ee\J)	.
4r	.	2A/	2ee\	.	2cc#X\	.
4A\	#	.	.	.	.	.
!LO:LB:g=original	!	!	!	!	!	!
=50	=50	=50	=50	=50	=50	=50
!	!	!LO:N:vis=2.	!	!	!	!
4D\	.	2A/	4ff\	1.ryy	8dd\	ro
.	.	.	.	.	8a\L	a-
4DD/	.	.	4r	.	8bn\J	.
.	.	.	.	.	8cc#X\L	.
4r	.	4r	8ff\L	.	8dd\	.
.	.	.	8gg\	.	8ee\J	.
4r	.	4c/	8aa\	.	8ff\L	.
.	.	.	8ff\J	.	8dd\J	.
!	!	!	!LO:LB:g=original	!	!	!
4r	.	2f/	2dd\	.	2bn\	-ma-
4G\	#	.	.	.	.	.
=51	=51	=51	=51	=51	=51	=51
4C/	.	4g/	4ee\	1.ryy	8cc\L	-bo
.	.	.	.	.	8g\J	.
4CC/	.	4r	4r	.	8a\L	a-
.	.	.	.	.	8bn\	.
4r	.	4r	8ee-X\L	.	8cc\	.
.	.	.	8ff\	.	8dd\J	.
4r	.	4c/	8gg\	.	8ee-X\L	.
.	.	.	8ee-X\J	.	8cc\J	.
4r	.	2f/	2cc\	.	2a\	-ma-
4F\	.	.	.	.	.	.
!	!	!LO:LB:g=original	!	!	!	!
=52	=52	=52	=52	=52	=52	=52
4BB-/	.	4f/	4dd\	1.ryy	4b-\	-bo
4B-\	.	4r	4r	.	4r	.
4F#X\	#	4r	4r	.	4dd\	ah
!	!	!LO:N:vis=2	!LO:N:vis=2	!	!	!
4G\	.	2.r	2.r	.	4b-\	o-
4r	.	.	.	.	(8cc\L	-ra
.	.	.	.	.	8b-\J)	.
4c\	.	.	.	.	(8a\L	pro
.	.	.	.	.	8g\J)	.
=53	=53	=53	=53	=53	=53	=53
4F\	.	1.r	1.r	1.ryy	4a\	me
!	!	!	!	!	!LO:LB:g=original	!
!	!	!	!	!	!LO:SIC:o:s=:v:niejednoznaczny zapis łuku	!
4F\	.	.	.	.	(8b-\L	o-
.	.	.	.	.	8a\	.
4E\	.	.	.	.	8g\	.
.	.	.	.	.	8a\J)	.
!	!	!	!	!	!LO:SIC:o:s=:v:niejednoznaczny zapis łuku	!
4D\	.	.	.	.	(4f/	.
4C/	6	.	.	.	4e/	.
4BB-/	6	.	.	.	4d/)	-ra
=54	=54	=54	=54	=54	=54	=54
!	!	!	!	!	!LO:SIC:o:s=:v:niejednoznaczny zapis ozdobnika [przyjęto mordent]	!
2AA/	.	4r	8r	1.ryy	1.a\m	pro
.	.	.	8aa\L	.	.	.
.	.	8r	8aa\	.	.	.
.	.	8aa\L	8ee\	.	.	.
4r	.	8aa\	8ee\	.	.	.
.	.	8ee\J	8cc#X\J	.	.	.
!LO:N:vis=2	!	!	!	!	!	!
2.r	.	4cc#X\	8a\L	.	.	.
.	.	.	8gg\	.	.	.
.	.	8r	8gg\	.	.	.
.	.	8gg\L	8ee\	.	.	.
.	.	8gg\	8ee\	.	.	.
.	.	8ee\J	8cc#X\J	.	.	.
=55	=55	=55	=55	=55	=55	=55
!LO:N:vis=2	!	!LO:TX:a:t=P:problem=mixed beam	!	!	!	!
2.r	.	8cc#X\L	8a\L	1.ryy	2.a\	me
.	.	8dd\	8ff\	.	.	.
.	.	8dd\	8ff\	.	.	.
.	.	8f/	8dd\	.	.	.
.	.	8f/	8dd\	.	.	.
.	.	8d/J	8g\J	.	.	.
!	!	!	!LO:LB:g=original	!	!	!
!	!	!LO:SIC:s=:v:4c#	!	!	!	!
4r	.	4c/	4e/	.	4r	.
4r	.	4r	4r	.	4r	.
4A\	#	4r	4r	.	4ee\	hanc
!LO:LB:g=original	!	!	!	!	!	!
=56	=56	=56	=56	=56	=56	=56
4d\	.	0.r	0.r	1.ryy	(8ff\L	ſem-
.	.	.	.	.	8dd\J)	.
8G\L	.	.	.	.	(8bn\L	-per
8A\	.	.	.	.	8cc\J)	.
!LO:SIC:s=:v:8B-	!	!	!	!	!	!
8B-\	.	.	.	.	(8dd\L	a-
8A\J	.	.	.	.	8bn\J)	.
4c\	.	.	.	.	(8ee\L	-ma-
.	.	.	.	.	8cc\J)	.
4F\	.	.	.	.	(8a\L	-bo
.	.	.	.	.	8bn\J)	.
!	!	!	!	!	!LO:SIC:s=:v:ah	!
8E\L	6	.	.	.	(8cc\L	ach
8D\J	.	.	.	.	8dd\J)	.
=57	=57	=57	=57	=57	=57	=57
4C/	.	.	.	1.ryy	4ee\	o-
4D/	.	.	.	.	4ff\	-ra
!	!	!	!	!	!LO:LB:g=original	!
!	!	!	!	!	!LO:SIC:o:s=:v:♯ w funkcji kasownika	!
4E/	.	.	.	.	4en/	pro
4AA/	.	.	.	.	2a\	me
!LO:SIC:o:s=:v:♯ w funkcji kasownika	!	!	!	!	!	!
4BBn/	.	.	.	.	.	.
4C/	.	.	.	.	4a\	hanc
=58	=58	=58	=58	=58	=58	=58
!	!	!	!	!	!LO:TX:a:t=bis	!
!	!	!	!	!	!LO:SIC:o:s=:v:znak początku repetycji	!
4D\	-6	4r	8r	1.ryy	4b-\	ſem-
.	.	.	8ff\L	.	.	.
4r	.	8r	8dd\	.	4b-\	-per
.	.	8ff\L	8b-\J	.	.	.
4r	.	8dd\	4bb-\	.	4b-\	im-
.	.	8b-\J	.	.	.	.
4D\	6	4bb-\	8r	.	4b-\	-plo-
.	-	.	8f/L	.	.	.
4r	.	8r	8d/	.	4ff\	-ro
.	.	8f/L	8B-/J	.	.	.
!	!	!	!	!	!LO:SIC:o:s=:v:znak końca repetycji repetycji	!
4r	.	8d/	4b-/	.	4b-\	{hanc
!	!	!LO:SIC:s=:v:8B-	!	!	!	!
.	.	8c/J	.	.	.	.
=59	=59	=59	=59	=59	=59	=59
!	!	!	!	!	!LO:SIC:o:s=:v:powtórzenie t. 58 oznaczone znakami repetycji adnotacja "bis"	!
4D\	-3	4b-/	8r	1.ryy	4b-\yy	ſem-
.	.	.	8ff\L	.	.	.
4r	.	8r	8ff\	.	4b-\yy	-per
.	.	8b-/L	8dd\	.	.	.
4r	.	8b-/	8dd\	.	4b-\yy	im-
.	.	8f/J	8b-\J	.	.	.
!	!	!LO:LB:g=original	!	!	!	!
!	!	!LO:TX:a:t=P:problem=mixed beam	!LO:TX:a:t=P:problem=mixed beam	!	!	!
4D\	6	8d/L	8f/L	.	4b-\yy	-plo-
.	-	8ff\	8dd\	.	.	.
4r	.	8ff\	8dd\	.	4ff\yy	-ro}
.	.	8dd\	8b-\	.	.	.
4r	.	8dd\	8b-\	.	4b-\yy	im-
.	.	8b-\J	8f\J	.	.	.
=60	=60	=60	=60	=60	=60	=60
4D\	6	4f/	4d/	1.ryy	4ff\	-plo-
.	-	.	.	.	.	.
4r	.	4r	4r	.	4dd\	-ro
4D\	.	4r	4r	.	4b-\	ho-
!	!	!LO:N:vis=2	!LO:N:vis=2	!	!	!
8E\L	.	2.r	2.r	.	4g#X\	-no-
8D\J	.	.	.	.	.	.
4C/	.	.	.	.	4a\	-re
!	!	!	!	!	!LO:SIC:o:s=:v:♯ w funkcji kasownika	!
4GG#X/	.	.	.	.	4bn\	ah
!LO:LB:g=original	!	!	!	!	!	!
=61	=61	=61	=61	=61	=61	=61
!	!	!LO:SIC:o:s=:v:strzała przecinająca kreskę taktową	!	!	!	!
!	!	!LO:SIC:o:s=:v:szlaczek	!	!	!	!
4AA/	#	1.r	1.r	1.ryy	4cc\	o-
4E\	#	.	.	.	4.bn\	-ra
4EE/	.	.	.	.	.	.
.	.	.	.	.	8cc\	pro
!LO:TX:a:t=P:problem=mixed beam	!	!	!	!	!	!
8AA/L	.	.	.	.	2a\	me.
8A\	.	.	.	.	.	.
8A\	.	.	.	.	.	.
8G\	.	.	.	.	.	.
!	!	!	!	!	!LO:SIC:o:s=:v:nieczytelny zapis "Da capo"	!
!	!	!	!	!	!LO:SIC:o:s=:v:szlaczek	!
8F\	.	.	.	.	4r	.
!LO:SIC:o:s=:v: szlaczek	!	!	!	!	!	!
8E\J	.	.	.	.	.	.
!LO:TX:b:B:t=Da Capo Usq(ue) ad Signum Finis	!	!LO:TX:a:B:t=Da Capo	!LO:TX:b:B:t=Da Capo	!	!LO:TX:b:B:t=Daſz kapo ad invertere	!
==;;:||:	==	==;;:||:	==;;:||:	==	==;;:||:	==
*-	*-	*-	*-	*-	*-	*-
!!!system-decoration: [(s1,s2)][(s3,s4)]s4
!!!EED: Leszek Kubiak
!!!EEV: 2020-11-03
!!!ENC: Andrzej Kubiczek
!!!END: 2020-05-23
